X:1
T:Title
%%score { ( 1 3 ) | ( 2 4 ) }
L:1/8
M:4/4
K:Ab
V:1 treble nm="Grand Piano"
V:3 treble 
V:2 bass 
V:4 bass 
V:1
 z4 z2[Q:1/4=100] A>B | [_CFA_c]3 [CFc] [CFB]2 [CFA]2 | z2 c4 z2 | [EGe]3 [Gd] [Gc]2 [GB]2 | %4
[M:3/4] [CEA]6 |[M:1/4][Q:1/4=104] z2 |[M:4/4] [E,A,CE]2 [CF]2 [DE]2 [DF]2 | z4 c4 | %8
 [EGe]2 [FGd]2 [EGc]2 [DEB]2 | A6 z2 | F2 G2 A2 B2 | z2 F2 G2 A2 | %12
 [EGBe]2 [B,EB]2 [B,=DFAB]2 [B,DFAB]2 | B6 z2 | [E,A,CE]2 [CF]2 [DE]2 [DF]2 | z4 c4 | %16
 [EAce]2 [A,EA]2 [A,DA]2 [A,C_GA]2 | [A,DFA]6[K:bass][K:treble] z2 | [_CFA_c]3 [Ac] [CFB]2 [CFA]2 | %19
 [CEAc]2 c->[CEAc-] [CEAc]2 z2 | [EGe]3 d c2 B2 |[M:3/4] A6[K:bass] |[M:1/4][K:treble] E>E | %23
[M:4/4] z2 e4 z2 | z2 e4 z2 | c2 B2 F2 G2 | (3AEA (3cAc e2 e>=e | z2 B4 z2 | z2 A4 z2 | %29
 [Ac]3 B A2 B2 | [Ec]2 (3[CEAc][CEAc][CEAc] [CEAc]2 z2 | z2 [GB]4 z2 | z2 A4 z2 | %33
 [Ae]3 [FGd] [EGc]2 [DEB]2 |[M:3/4] [A,CEA]6[K:bass] |] %35
V:2
 z4 z2 A,>B, | [=D,,=D,]4 [D,,D,]2 [D,,D,]2 | [E,,E,]2 [E,,E,]>[E,,E,] .[E,,E,]2 E2 | %3
 .E,,2 z[K:treble] F E2[K:bass] [E,G,D]2 |[M:3/4] A,2 E,2 A,,2 |[M:1/4] E>E | %6
[M:4/4] A,,2 [A,,E,A,]2 [B,,E,G,]2 [B,,E,G,]2 | [C,E,]2 [A,,E,A,]2 [A,,E,A,]2 z[K:treble] c | %8
 E,,2 E,2 F,2 G,2 | z2 [E,C]2 [A,C]2 z2 | [A,D]4 [F,D]4 | [C,A,]8 | %12
 [B,,G,]2 [G,,G,]2 [F,,F,]2 [B,,,B,,]2 | z2 B,,2 E,2 E>E | A,,2 [A,,E,A,]2 [B,,E,G,]2 [B,,E,G,]2 | %15
 [C,E,]2 [A,,E,A,]2 [A,,E,A,]2 z[K:treble] c | [A,,,A,,]2 [C,,C,]2 [F,,F,]2 [E,,E,]2 | %17
 D,2 [A,,D,]>[A,,D,] [A,,D,]2 A,B, | z2 z [_CF] [=D,,=D,]2 [D,,D,]2 | %19
 [E,,E,]2 [E,,E,]>[E,,E,] [E,,E,]2 E2 | E,,2 z[K:treble] [FG] [EG]2[K:bass] [E,G,DE]2 | %21
[M:3/4] [CE]6 |[M:1/4] z2 |[M:4/4] z2 [A,CE]>[A,C] [B,D]<[B,D] z2 | %24
 z2[K:treble] [B,DG]>[B,D][K:bass] [A,C]<[A,C] [A,,A,]>[A,,A,] | %25
 [E,G,E]2 [E,G,D]2 [E,A,D]2 [E,B,D]2 | (3[A,-C-E][A,C][A,CE] (3[A,-EA][A,C][A,EA] [A,CA]2 z2 | %27
 z2 G->[DG-] [DG-]<[DG] z2 | z2 [CE]>C C<C[K:bass] [E,CE]2 | [E,E]3 [E,DE] [E,CE]2 [E,G,E]2 | %30
 [A,,A,]2 (3[A,,E,A,][A,,E,A,][A,,E,A,] [A,,E,A,]2[K:treble] e>=e | f2 D>D D<D z2 | %32
 z2 [CE]>C C<C [A,EA]2 | [E,C]3 E, E,2 E,2 |[M:3/4] A,,4 z2 |] %35
V:3
 x8 | x8 | [CEAc]2 [A,EA]>[A,=DA] .[CEA]2 z2 | x8 |[M:3/4] x6 |[M:1/4] x2 |[M:4/4] x8 | %7
 [A,E]2 [CEc]2 [CE]2 [E,A,CE]2 | x8 | z2 E2 E2 A>G | x8 | E8 | x8 | z2 [B,EG]2 [B,DEG]2 z2 | x8 | %15
 [A,E]2 [CEc]2 [CE]2 [E,A,CE]2 | x8 | z2[K:bass] F,>F, F,2[K:treble] AB | x8 | z2 [CEA]2 z4 | x8 | %21
[M:3/4] z2[K:bass] E,2 A,,2 |[M:1/4][K:treble] x2 |[M:4/4] e2 z z/ E/ G<G E>E | %24
 e2 z z/ G/ A<A [Ec]>[Ec] | x8 | x8 | f2 z z/ E/ E<E c>d | e2 z z/ E/ E<E A2 | x8 | x8 | %31
 z2 E>E E<E c>d | e2 z z/ E/ E<E c2 | x8 |[M:3/4] z2[K:bass] E,2 A,,2 |] %35
V:4
 x8 | x8 | x8 | z2 E,4[K:treble][K:bass] z2 |[M:3/4] x6 |[M:1/4] x2 |[M:4/4] x8 | %7
 z4 z2 A,,2[K:treble] | x8 | A,,6 z2 | D,8 | x8 | x8 | E,,6 z2 | x8 | z4 z2 A,,2[K:treble] | x8 | %17
 D,,6 z2 | [=D,,=D,]4 z4 | x8 | z2 E,4[K:treble][K:bass] z2 |[M:3/4] A,2 z2 z2 |[M:1/4] x2 | %23
[M:4/4] x8 | x2[K:treble] x2[K:bass] x4 | x8 | x8 | z2 [DE]2 z4 | x6[K:bass] x2 | x8 | %30
 x6[K:treble] x2 | x8 | x8 | x8 |[M:3/4] z2 E,,2 A,,,2 |] %35

